X: 1357
T: Copenhagen Waltz
B: australian traditional tunes wiki
M:3/4
L:1/8
Q: 1/4=100
K:D
V:1 
||"D"d2f<a f<a|d2f<a f<a|"A7"A2c<e c<e|A2c<e c<e|"D"d2f<a f<a|d2f<a f<a|"A7"A2c2e2|"D"d6|
"D"d2f<a f<a|d2f<a f<a|"A7"A2c<e c<e|A2c<e c<e|"D"d2f<a f<a|d2f<a f<a|"A7"A2c2e2|"D"d4 (3EFE ||
||"D"D2F2d2|"A7"c4B2|"Em"E2G2B2|"A7"A4-AE|"D"A,2D3F|"Em"G4E2|"A7"A,2E2E>G|"D"F3G FE|
"D"D2F2d2|"A7"c4B2|"Em"E2G2B2|"A7"A6|"D"A,2D3F|"Em"G4E2|"A7"A2c2e2|"D"d6||
% abcbook-tune_id 6342d53a11f7bf85237c32c2


% abcbook-boost 0
% abcbook-tablature 
% abcbook-transpose 
% abcbook-lastupdated 1665324360890
% abcbook-soundfonts 
% abcbook-repeats 1
% NFF Book 2015

